images/facebook.svg

<svg width="93" height="90" viewBox="0 0 93 90" fill="none" xmlns="http://www.w3.org/2000/svg">
<path d="M0 45.2708C0.00541028 67.5443 16.639 86.5093 39.2307 90V58.3559H27.434V45.2708H39.2446V35.3099C38.7167 30.5899 40.3723 25.8859 43.7626 22.4735C47.1529 19.0612 51.9264 17.2942 56.7885 17.6518C60.2783 17.7067 63.7595 18.0094 67.2041 18.5574V29.691H61.3267C59.3033 29.4329 57.2691 30.0836 55.797 31.4598C54.3249 32.836 53.5744 34.7887 53.7568 36.7678V45.2708H66.6415L64.5816 58.3604H53.7568V90C78.1893 86.2402 95.3221 64.5126 92.7434 40.5578C90.1647 16.6031 68.7771 -1.1928 44.075 0.0625039C19.3729 1.31781 0.00392668 21.1848 0 45.2708Z" fill="#3B5998" fill-opacity="0.86"/>
</svg>

<svg width="93" height="90" fill="none" xmlns="http://www.w3.org/2000/svg"><path d="M0 45.27C.005 67.545 16.639 86.51 39.23 90V58.356H27.435V45.27h11.81v-9.96c-.527-4.72 1.128-9.424 4.519-12.837 3.39-3.412 8.163-5.179 13.026-4.821 3.49.055 6.97.357 10.415.905v11.134h-5.877a6.838 6.838 0 00-5.53 1.769 6.452 6.452 0 00-2.04 5.308v8.503H66.64l-2.06 13.09H53.758V90c24.432-3.76 41.565-25.487 38.986-49.442C90.165 16.603 68.777-1.192 44.075.063 19.373 1.318.004 21.185 0 45.27z" fill="#3B5998" fill-opacity=".86"/></svg>
